X:1008
T:The Drunken Wives of Fochabers.
M:C
L:1/8
Q:1/4=120
I: :: ::
Z:Jack Campin * www.campin.me.uk * 2009
K:A Minor
B|E/E/E E2 G>AGB|A/A/A A>B c>AB<e|E/E/E E2 G>AB>d|e>g e/d/c/B/ B<AA:|
e|g>ed>B   g>abg|a/a/a ab  c'>aba|g>ed>B   g>aba |g>edg        B<AA:|

